X:10
T:Johnny Groat's House. Ru1.010
B:Rutherford's Country Dances Vol 1, 1756
Z:village music project, Steve Mansfield July 2015
M:2/4
L:1/8
W:The first Cu. Gallop down one Cu. & up again
W:and cast off .| The same with the 3d Cu. and
W:Cast off ? Hands round all six .|. Lead up
W:To the Top Foot it and cast off ?
Q:1/4=90
K:F
|:c | ff/f/ fa | ff/f/ fa | fgfe | G3 A |
FF/F/ FA | FF/F/ Ff | A2 G2 | F3 ?
|: A/B/ | c>dc>A | cc/c/ cf | f>gfa | g3 f/g/ |
a/a/a af | g/g/g gc | A2 G2 | F3 ?

